@themes/theme-zeno/src/img/stars.svg

<svg width="521" height="388" viewBox="0 0 521 388" fill="none" xmlns="http://www.w3.org/2000/svg">
<path d="M365.364 296.053C357.182 296.053 357.182 296.053 357.182 287C357.182 296.053 357.182 296.053 349 296.053C357.182 296.053 357.182 296.053 357.182 305C357.182 296.053 357.182 296.053 365.364 296.053Z" fill="#1BFEC0"/>
<path d="M317.364 319.053C309.182 319.053 309.182 319.053 309.182 310C309.182 319.053 309.182 319.053 301 319.053C309.182 319.053 309.182 319.053 309.182 328C309.182 319.053 309.182 319.053 317.364 319.053Z" fill="#1BFEC0"/>
<path d="M16.3636 317.053C8.18182 317.053 8.18182 317.053 8.18182 308C8.18182 317.053 8.18182 317.053 -2.94619e-08 317.053C8.18182 317.053 8.18182 317.053 8.18182 326C8.18182 317.053 8.18182 317.053 16.3636 317.053Z" fill="#1BFEC0"/>
<path d="M69.3636 266.053C61.1818 266.053 61.1818 266.053 61.1818 257C61.1818 266.053 61.1818 266.053 53 266.053C61.1818 266.053 61.1818 266.053 61.1818 275C61.1818 266.053 61.1818 266.053 69.3636 266.053Z" fill="#1BFEC0"/>
<path d="M194.364 367.053C186.182 367.053 186.182 367.053 186.182 358C186.182 367.053 186.182 367.053 178 367.053C186.182 367.053 186.182 367.053 186.182 376C186.182 367.053 186.182 367.053 194.364 367.053Z" fill="#1BFEC0"/>
<path d="M221.364 287.053C213.182 287.053 213.182 287.053 213.182 278C213.182 287.053 213.182 287.053 205 287.053C213.182 287.053 213.182 287.053 213.182 296C213.182 287.053 213.182 287.053 221.364 287.053Z" fill="#1BFEC0"/>
<path d="M193.364 171.053C185.182 171.053 185.182 171.053 185.182 162C185.182 171.053 185.182 171.053 177 171.053C185.182 171.053 185.182 171.053 185.182 180C185.182 171.053 185.182 171.053 193.364 171.053Z" fill="#1BFEC0"/>
<path d="M265.364 121.053C257.182 121.053 257.182 121.053 257.182 112C257.182 121.053 257.182 121.053 249 121.053C257.182 121.053 257.182 121.053 257.182 130C257.182 121.053 257.182 121.053 265.364 121.053Z" fill="#1BFEC0"/>
<path d="M382.364 187.053C374.182 187.053 374.182 187.053 374.182 178C374.182 187.053 374.182 187.053 366 187.053C374.182 187.053 374.182 187.053 374.182 196C374.182 187.053 374.182 187.053 382.364 187.053Z" fill="#1BFEC0"/>
<path d="M461.364 152.053C453.182 152.053 453.182 152.053 453.182 143C453.182 152.053 453.182 152.053 445 152.053C453.182 152.053 453.182 152.053 453.182 161C453.182 152.053 453.182 152.053 461.364 152.053Z" fill="#1BFEC0"/>
<path d="M412.364 124.053C404.182 124.053 404.182 124.053 404.182 115C404.182 124.053 404.182 124.053 396 124.053C404.182 124.053 404.182 124.053 404.182 133C404.182 124.053 404.182 124.053 412.364 124.053Z" fill="#1BFEC0"/>
<path d="M469.364 259.053C461.182 259.053 461.182 259.053 461.182 250C461.182 259.053 461.182 259.053 453 259.053C461.182 259.053 461.182 259.053 461.182 268C461.182 259.053 461.182 259.053 469.364 259.053Z" fill="#1BFEC0"/>
<path d="M520.364 379.053C512.182 379.053 512.182 379.053 512.182 370C512.182 379.053 512.182 379.053 504 379.053C512.182 379.053 512.182 379.053 512.182 388C512.182 379.053 512.182 379.053 520.364 379.053Z" fill="#1BFEC0"/>
<path d="M365.364 184.053C357.182 184.053 357.182 184.053 357.182 175C357.182 184.053 357.182 184.053 349 184.053C357.182 184.053 357.182 184.053 357.182 193C357.182 184.053 357.182 184.053 365.364 184.053Z" fill="#1BFEC0"/>
<path d="M317.364 207.053C309.182 207.053 309.182 207.053 309.182 198C309.182 207.053 309.182 207.053 301 207.053C309.182 207.053 309.182 207.053 309.182 216C309.182 207.053 309.182 207.053 317.364 207.053Z" fill="#1BFEC0"/>
<path d="M16.3636 205.053C8.18182 205.053 8.18182 205.053 8.18182 196C8.18182 205.053 8.18182 205.053 -2.94619e-08 205.053C8.18182 205.053 8.18182 205.053 8.18182 214C8.18182 205.053 8.18182 205.053 16.3636 205.053Z" fill="#1BFEC0"/>
<path d="M69.3636 154.053C61.1818 154.053 61.1818 154.053 61.1818 145C61.1818 154.053 61.1818 154.053 53 154.053C61.1818 154.053 61.1818 154.053 61.1818 163C61.1818 154.053 61.1818 154.053 69.3636 154.053Z" fill="#1BFEC0"/>
<path d="M194.364 255.053C186.182 255.053 186.182 255.053 186.182 246C186.182 255.053 186.182 255.053 178 255.053C186.182 255.053 186.182 255.053 186.182 264C186.182 255.053 186.182 255.053 194.364 255.053Z" fill="#1BFEC0"/>
<path d="M221.364 175.053C213.182 175.053 213.182 175.053 213.182 166C213.182 175.053 213.182 175.053 205 175.053C213.182 175.053 213.182 175.053 213.182 184C213.182 175.053 213.182 175.053 221.364 175.053Z" fill="#1BFEC0"/>
<path d="M193.364 59.0533C185.182 59.0533 185.182 59.0533 185.182 50C185.182 59.0533 185.182 59.0533 177 59.0533C185.182 59.0533 185.182 59.0533 185.182 68C185.182 59.0533 185.182 59.0533 193.364 59.0533Z" fill="#1BFEC0"/>
<path d="M265.364 9.05326C257.182 9.05326 257.182 9.05326 257.182 2.6626e-08C257.182 9.05325 257.182 9.05326 249 9.05326C257.182 9.05326 257.182 9.05326 257.182 18C257.182 9.05326 257.182 9.05326 265.364 9.05326Z" fill="#1BFEC0"/>
<path d="M382.364 75.0533C374.182 75.0533 374.182 75.0533 374.182 66C374.182 75.0533 374.182 75.0533 366 75.0533C374.182 75.0533 374.182 75.0533 374.182 84C374.182 75.0533 374.182 75.0533 382.364 75.0533Z" fill="#1BFEC0"/>
<path d="M461.364 40.0533C453.182 40.0533 453.182 40.0533 453.182 31C453.182 40.0533 453.182 40.0533 445 40.0533C453.182 40.0533 453.182 40.0533 453.182 49C453.182 40.0533 453.182 40.0533 461.364 40.0533Z" fill="#1BFEC0"/>
<path d="M412.364 12.0533C404.182 12.0533 404.182 12.0533 404.182 3C404.182 12.0533 404.182 12.0533 396 12.0533C404.182 12.0533 404.182 12.0533 404.182 21C404.182 12.0533 404.182 12.0533 412.364 12.0533Z" fill="#1BFEC0"/>
<path d="M469.364 147.053C461.182 147.053 461.182 147.053 461.182 138C461.182 147.053 461.182 147.053 453 147.053C461.182 147.053 461.182 147.053 461.182 156C461.182 147.053 461.182 147.053 469.364 147.053Z" fill="#1BFEC0"/>
<path d="M520.364 267.053C512.182 267.053 512.182 267.053 512.182 258C512.182 267.053 512.182 267.053 504 267.053C512.182 267.053 512.182 267.053 512.182 276C512.182 267.053 512.182 267.053 520.364 267.053Z" fill="#1BFEC0"/>
</svg>

<svg width="521" height="388" fill="none" xmlns="http://www.w3.org/2000/svg"><path d="M365.364 296.053c-8.182 0-8.182 0-8.182-9.053 0 9.053 0 9.053-8.182 9.053 8.182 0 8.182 0 8.182 8.947 0-8.947 0-8.947 8.182-8.947zM317.364 319.053c-8.182 0-8.182 0-8.182-9.053 0 9.053 0 9.053-8.182 9.053 8.182 0 8.182 0 8.182 8.947 0-8.947 0-8.947 8.182-8.947zM16.364 317.053c-8.182 0-8.182 0-8.182-9.053 0 9.053 0 9.053-8.182 9.053 8.182 0 8.182 0 8.182 8.947 0-8.947 0-8.947 8.182-8.947zM69.364 266.053c-8.182 0-8.182 0-8.182-9.053 0 9.053 0 9.053-8.182 9.053 8.182 0 8.182 0 8.182 8.947 0-8.947 0-8.947 8.182-8.947zM194.364 367.053c-8.182 0-8.182 0-8.182-9.053 0 9.053 0 9.053-8.182 9.053 8.182 0 8.182 0 8.182 8.947 0-8.947 0-8.947 8.182-8.947zM221.364 287.053c-8.182 0-8.182 0-8.182-9.053 0 9.053 0 9.053-8.182 9.053 8.182 0 8.182 0 8.182 8.947 0-8.947 0-8.947 8.182-8.947zM193.364 171.053c-8.182 0-8.182 0-8.182-9.053 0 9.053 0 9.053-8.182 9.053 8.182 0 8.182 0 8.182 8.947 0-8.947 0-8.947 8.182-8.947zM265.364 121.053c-8.182 0-8.182 0-8.182-9.053 0 9.053 0 9.053-8.182 9.053 8.182 0 8.182 0 8.182 8.947 0-8.947 0-8.947 8.182-8.947zM382.364 187.053c-8.182 0-8.182 0-8.182-9.053 0 9.053 0 9.053-8.182 9.053 8.182 0 8.182 0 8.182 8.947 0-8.947 0-8.947 8.182-8.947zM461.364 152.053c-8.182 0-8.182 0-8.182-9.053 0 9.053 0 9.053-8.182 9.053 8.182 0 8.182 0 8.182 8.947 0-8.947 0-8.947 8.182-8.947zM412.364 124.053c-8.182 0-8.182 0-8.182-9.053 0 9.053 0 9.053-8.182 9.053 8.182 0 8.182 0 8.182 8.947 0-8.947 0-8.947 8.182-8.947zM469.364 259.053c-8.182 0-8.182 0-8.182-9.053 0 9.053 0 9.053-8.182 9.053 8.182 0 8.182 0 8.182 8.947 0-8.947 0-8.947 8.182-8.947zM520.364 379.053c-8.182 0-8.182 0-8.182-9.053 0 9.053 0 9.053-8.182 9.053 8.182 0 8.182 0 8.182 8.947 0-8.947 0-8.947 8.182-8.947zM365.364 184.053c-8.182 0-8.182 0-8.182-9.053 0 9.053 0 9.053-8.182 9.053 8.182 0 8.182 0 8.182 8.947 0-8.947 0-8.947 8.182-8.947zM317.364 207.053c-8.182 0-8.182 0-8.182-9.053 0 9.053 0 9.053-8.182 9.053 8.182 0 8.182 0 8.182 8.947 0-8.947 0-8.947 8.182-8.947zM16.364 205.053c-8.182 0-8.182 0-8.182-9.053 0 9.053 0 9.053-8.182 9.053 8.182 0 8.182 0 8.182 8.947 0-8.947 0-8.947 8.182-8.947zM69.364 154.053c-8.182 0-8.182 0-8.182-9.053 0 9.053 0 9.053-8.182 9.053 8.182 0 8.182 0 8.182 8.947 0-8.947 0-8.947 8.182-8.947zM194.364 255.053c-8.182 0-8.182 0-8.182-9.053 0 9.053 0 9.053-8.182 9.053 8.182 0 8.182 0 8.182 8.947 0-8.947 0-8.947 8.182-8.947zM221.364 175.053c-8.182 0-8.182 0-8.182-9.053 0 9.053 0 9.053-8.182 9.053 8.182 0 8.182 0 8.182 8.947 0-8.947 0-8.947 8.182-8.947zM193.364 59.053c-8.182 0-8.182 0-8.182-9.053 0 9.053 0 9.053-8.182 9.053 8.182 0 8.182 0 8.182 8.947 0-8.947 0-8.947 8.182-8.947zM265.364 9.053c-8.182 0-8.182 0-8.182-9.053 0 9.053 0 9.053-8.182 9.053 8.182 0 8.182 0 8.182 8.947 0-8.947 0-8.947 8.182-8.947zM382.364 75.053c-8.182 0-8.182 0-8.182-9.053 0 9.053 0 9.053-8.182 9.053 8.182 0 8.182 0 8.182 8.947 0-8.947 0-8.947 8.182-8.947zM461.364 40.053c-8.182 0-8.182 0-8.182-9.053 0 9.053 0 9.053-8.182 9.053 8.182 0 8.182 0 8.182 8.947 0-8.947 0-8.947 8.182-8.947zM412.364 12.053c-8.182 0-8.182 0-8.182-9.053 0 9.053 0 9.053-8.182 9.053 8.182 0 8.182 0 8.182 8.947 0-8.947 0-8.947 8.182-8.947z" fill="#1BFEC0"/><path d="M469.364 147.053c-8.182 0-8.182 0-8.182-9.053 0 9.053 0 9.053-8.182 9.053 8.182 0 8.182 0 8.182 8.947 0-8.947 0-8.947 8.182-8.947zM520.364 267.053c-8.182 0-8.182 0-8.182-9.053 0 9.053 0 9.053-8.182 9.053 8.182 0 8.182 0 8.182 8.947 0-8.947 0-8.947 8.182-8.947z" fill="#1BFEC0"/></svg>
